src/svg/area/area-eys.svg

<?xml version="1.0" encoding="UTF-8" standalone="no"?>
<!-- Generado por Andres Lacquaniti  -->

<svg
   xmlns:dc="http://purl.org/dc/elements/1.1/"
   xmlns:cc="http://creativecommons.org/ns#"
   xmlns:rdf="http://www.w3.org/1999/02/22-rdf-syntax-ns#"
   xmlns:svg="http://www.w3.org/2000/svg"
   xmlns="http://www.w3.org/2000/svg"
   xmlns:sodipodi="http://sodipodi.sourceforge.net/DTD/sodipodi-0.dtd"
   xmlns:inkscape="http://www.inkscape.org/namespaces/inkscape"
   version="1.1"
   id="Layer_1"
   x="0px"
   y="0px"
   width="15px"
   height="15px"
   viewBox="0 0 15 15"
   style="enable-background:new 0 0 15 15;"
   xml:space="preserve"
   sodipodi:docname="area-eys.svg"
   inkscape:version="0.92.0 r15299"><metadata
     id="metadata9"><rdf:RDF><cc:Work
         rdf:about=""><dc:format>image/svg+xml</dc:format><dc:type
           rdf:resource="http://purl.org/dc/dcmitype/StillImage" /><dc:title></dc:title></cc:Work></rdf:RDF></metadata><sodipodi:namedview
     pagecolor="#ffffff"
     bordercolor="#666666"
     borderopacity="1"
     objecttolerance="10"
     gridtolerance="10"
     guidetolerance="10"
     inkscape:pageopacity="0"
     inkscape:pageshadow="2"
     inkscape:window-width="1920"
     inkscape:window-height="996"
     id="namedview5"
     showgrid="false"
     inkscape:zoom="22.250293"
     inkscape:cx="5.3205382"
     inkscape:cy="12.718333"
     inkscape:window-x="-8"
     inkscape:window-y="-8"
     inkscape:window-maximized="1"
     inkscape:current-layer="Layer_1" /><path
     style="fill:#000000;fill-opacity:1;fill-rule:nonzero;stroke:none;stroke-width:0.37784076"
     d="M 7.2539062 0.71289062 C 3.4754981 0.71289063 0.40039063 3.7864237 0.40039062 7.5644531 C 0.40039062 11.342491 3.4754981 14.416016 7.2539062 14.416016 C 11.032314 14.416016 14.105469 11.342491 14.105469 7.5644531 C 14.105469 3.7864237 11.032314 0.71289063 7.2539062 0.71289062 z M 7.2539062 1.9980469 C 10.323862 1.9980469 12.820313 4.4952536 12.820312 7.5644531 C 12.820312 10.633283 10.323862 13.132812 7.2539062 13.132812 C 4.1847053 13.132814 1.6875 10.633283 1.6875 7.5644531 C 1.6875 4.4952536 4.1847053 1.9980469 7.2539062 1.9980469 z M 7.2519531 2.4296875 L 2.7460938 10.234375 L 11.759766 10.234375 L 7.2519531 2.4296875 z M 7.2519531 5 L 9.5332031 8.9492188 L 4.9726562 8.9492188 L 7.2519531 5 z M 7.2539062 6.5839844 C 6.6996135 6.5839844 6.25 7.0323876 6.25 7.5859375 C 6.25 8.1398442 6.6996135 8.5878906 7.2539062 8.5878906 C 7.807443 8.5878906 8.2558594 8.1398442 8.2558594 7.5859375 C 8.2558594 7.0323876 7.8074429 6.5839844 7.2539062 6.5839844 z "
     id="path5678" /></svg>

<svg width="15px" height="15px" enable-background="new 0 0 15 15" version="1.1" viewBox="0 0 15 15" xmlns="http://www.w3.org/2000/svg">
 <path d="m7.2539 0.71289c-3.7784 1e-8 -6.8535 3.0735-6.8535 6.8516 0 3.778 3.0751 6.8516 6.8535 6.8516 3.7784 0 6.8516-3.0735 6.8516-6.8516 0-3.778-3.0732-6.8516-6.8516-6.8516zm0 1.2852c3.07 0 5.5664 2.4972 5.5664 5.5664 0 3.0688-2.4964 5.5684-5.5664 5.5684-3.0692 2e-6 -5.5664-2.4995-5.5664-5.5684 0-3.0692 2.4972-5.5664 5.5664-5.5664zm-0.0019531 0.43164-4.5059 7.8047h9.0137l-4.5078-7.8047zm0 2.5703 2.2812 3.9492h-4.5605l2.2793-3.9492zm0.0019531 1.584c-0.55429 0-1.0039 0.4484-1.0039 1.002 0 0.55391 0.44961 1.002 1.0039 1.002 0.55354 0 1.002-0.44805 1.002-1.002 0-0.55355-0.44842-1.002-1.002-1.002z"/>
</svg>
